src/assets/visa.svg

<svg xmlns="http://www.w3.org/2000/svg" viewBox="0 0 1000 324.68"><path fill="#1434cb" d="m651.19.5c-70.93,0-134.32,36.77-134.32,104.69,0,77.9,112.42,83.28,112.42,122.42,0,16.48-18.88,31.23-51.14,31.23-45.77,0-79.98-20.61-79.98-20.61l-14.64,68.55s39.41,17.41,91.73,17.41c77.55,0,138.58-38.57,138.58-107.66,0-82.32-112.89-87.54-112.89-123.86,0-12.91,15.5-27.05,47.66-27.05,36.29,0,65.89,14.99,65.89,14.99l14.33-66.2S696.61.5,651.18.5h0ZM2.22,5.5L.5,15.49s29.84,5.46,56.72,16.36c34.61,12.49,37.07,19.77,42.9,42.35l63.51,244.83h85.14L379.93,5.5h-84.94l-84.28,213.17-34.39-180.7c-3.15-20.68-19.13-32.48-38.68-32.48,0,0-135.41,0-135.41,0Zm411.87,0l-66.63,313.53h81L494.85,5.5h-80.76Zm451.76,0c-19.53,0-29.88,10.46-37.47,28.73l-118.67,284.8h84.94l16.43-47.47h103.48l9.99,47.47h74.95L934.12,5.5h-68.27Zm11.05,84.71l25.18,117.65h-67.45l42.28-117.65h0Z"/></svg>

<svg width="1000" height="325" viewBox="0 0 1000 325" fill="none" xmlns="http://www.w3.org/2000/svg">
<g clip-path="url(#clip0_31_20)">
<path d="M651.19 0.5C580.26 0.5 516.87 37.27 516.87 105.19C516.87 183.09 629.29 188.47 629.29 227.61C629.29 244.09 610.41 258.84 578.15 258.84C532.38 258.84 498.17 238.23 498.17 238.23L483.53 306.78C483.53 306.78 522.94 324.19 575.26 324.19C652.81 324.19 713.84 285.62 713.84 216.53C713.84 134.21 600.95 128.99 600.95 92.67C600.95 79.76 616.45 65.62 648.61 65.62C684.9 65.62 714.5 80.61 714.5 80.61L728.83 14.41C728.83 14.41 696.61 0.5 651.18 0.5H651.19ZM2.22 5.5L0.5 15.49C0.5 15.49 30.34 20.95 57.22 31.85C91.83 44.34 94.29 51.62 100.12 74.2L163.63 319.03H248.77L379.93 5.5H294.99L210.71 218.67L176.32 37.97C173.17 17.29 157.19 5.49 137.64 5.49H2.23L2.22 5.5ZM414.09 5.5L347.46 319.03H428.46L494.85 5.5H414.09ZM865.85 5.5C846.32 5.5 835.97 15.96 828.38 34.23L709.71 319.03H794.65L811.08 271.56H914.56L924.55 319.03H999.5L934.12 5.5H865.85ZM876.9 90.21L902.08 207.86H834.63L876.91 90.21H876.9Z" fill="white"/>
</g>
<defs>
<clipPath id="clip0_31_20">
<rect width="1000" height="324.68" fill="white"/>
</clipPath>
</defs>
</svg>
